X:2902
T:Mai vi har
T:Lightly row
C:anon.
O:Germany
Z:Transcribed by Frank Nordberg - http://www.musicaviva.com
F:http://abc.musicaviva.com/tunes/germany/mai-vi-har.abc
M:C
L:1/4
K:G
"G"dBB2|"D7"cAA2|"G"GABc|"G"ddd2|
w:Mai vi har, lys og klar, v\aa-rens vin-der hit den bar.
"G"dBB2|"D7"cAA2|"G"GB"D7"dd|"G"G3 z|
w:Blom-ster sm\aa, gu-le, bl\aa, st\aar i bak-ken n\aa.
"D"AAAA|"D"ABc2|"G"BBBB|"G"Bcd2|
w:Se p\aa v\aa-rens blom-ster-flor, h\or na-tu-rens e-get kor:
"G"dBB2|"D7"cAA2|"G"GB"D7"dd|"G"G3 z|
